X: 356
T: Maruru Kaihua
L: 1/16
M: 2/4
K: Bb
d'2 c' d' f2 f g [I:setbarnb 1]| 
b c' d' c' b2 g f | 
d'2 f2 g f2 d | 
c'8 | 
d'2 c' d' f2 f g | 
b c' d' c' b2 g f | 
d'2 f2 g f2 d | 
f8 |]

@@@ Tune index: 9230
